svg/fluentui-system-icons/ic_fluent_sticker_add_24_filled.svg

<svg width="24" height="24" viewBox="0 0 24 24" fill="none" xmlns="http://www.w3.org/2000/svg">
<path d="M17.5 12C20.5376 12 23 14.4624 23 17.5C23 20.5376 20.5376 23 17.5 23C14.4624 23 12 20.5376 12 17.5C12 14.4624 14.4624 12 17.5 12ZM17.5 13.9992L17.4101 14.0073C17.206 14.0443 17.0451 14.2053 17.0081 14.4094L17 14.4992L16.9996 16.9992L14.4977 17L14.4078 17.0081C14.2037 17.0451 14.0427 17.206 14.0057 17.4101L13.9977 17.5L14.0057 17.5899C14.0427 17.794 14.2037 17.9549 14.4078 17.9919L14.4977 18L17.0007 17.9992L17.0011 20.5035L17.0092 20.5934C17.0462 20.7975 17.2071 20.9584 17.4112 20.9954L17.5011 21.0035L17.591 20.9954C17.7951 20.9584 17.956 20.7975 17.9931 20.5934L18.0011 20.5035L18.0007 17.9992L20.5046 18L20.5944 17.9919C20.7985 17.9549 20.9595 17.794 20.9965 17.5899L21.0046 17.5L20.9965 17.4101C20.9595 17.206 20.7985 17.0451 20.5944 17.0081L20.5046 17L17.9996 16.9992L18 14.4992L17.9919 14.4094C17.9549 14.2053 17.794 14.0443 17.5899 14.0073L17.5 13.9992ZM17.75 3C19.5449 3 21 4.45507 21 6.25L21.0012 12.0226C19.9907 11.3753 18.7892 11 17.5 11C14.8017 11 12.4873 12.6442 11.5043 14.9854C10.6572 14.9085 9.88524 14.6258 9.17654 14.1356C8.83587 13.9 8.36869 13.9851 8.13307 14.3258C7.89744 14.6665 7.98259 15.1336 8.32326 15.3693C9.16646 15.9525 10.0901 16.313 11.085 16.4484C11.029 16.7905 11 17.1419 11 17.5C11 18.7892 11.3753 19.9907 12.0226 21.0012L6.25 21C4.45507 21 3 19.5449 3 17.75V6.25C3 4.45507 4.45507 3 6.25 3H17.75ZM9.00045 7.75116C8.31048 7.75116 7.75116 8.31048 7.75116 9.00045C7.75116 9.69041 8.31048 10.2497 9.00045 10.2497C9.69041 10.2497 10.2497 9.69041 10.2497 9.00045C10.2497 8.31048 9.69041 7.75116 9.00045 7.75116ZM15.0004 7.75116C14.3105 7.75116 13.7512 8.31048 13.7512 9.00045C13.7512 9.69041 14.3105 10.2497 15.0004 10.2497C15.6904 10.2497 16.2497 9.69041 16.2497 9.00045C16.2497 8.31048 15.6904 7.75116 15.0004 7.75116Z" fill="#212121"/>
</svg>

<svg xmlns="http://www.w3.org/2000/svg" width="24" height="24"><path d="M17.5 12a5.5 5.5 0 1 1 0 11 5.5 5.5 0 0 1 0-11Zm0 2-.09.007a.5.5 0 0 0-.402.402L17 14.5V17h-2.502l-.09.008a.5.5 0 0 0-.402.402l-.008.09.008.09a.5.5 0 0 0 .402.402l.09.008H17v2.503l.008.09a.5.5 0 0 0 .402.402l.09.008.09-.008a.5.5 0 0 0 .402-.402l.008-.09V18l2.504.001.09-.008a.5.5 0 0 0 .402-.402l.008-.09-.008-.09a.5.5 0 0 0-.403-.402l-.09-.008H18v-2.5l-.008-.09a.5.5 0 0 0-.402-.403L17.5 14Zm.25-11A3.25 3.25 0 0 1 21 6.25l.001 5.773a6.502 6.502 0 0 0-9.497 2.963 4.78 4.78 0 0 1-2.327-.85.75.75 0 1 0-.854 1.233 6.293 6.293 0 0 0 2.762 1.08A6.507 6.507 0 0 0 12.023 21H6.25A3.25 3.25 0 0 1 3 17.75V6.25A3.25 3.25 0 0 1 6.25 3h11.5ZM9 7.751a1.25 1.25 0 1 0 0 2.499 1.25 1.25 0 0 0 0-2.5Zm6 0a1.25 1.25 0 1 0 0 2.499 1.25 1.25 0 0 0 0-2.499Z"/></svg>
